X:1
T:Arietta
T:Arietta
T:Franz Joseph Haydn
C:Franz Joseph Haydn
%%score 1 2
L:1/8
M:4/4
K:C
V:1 treble 
V:2 bass 
V:1
"^p" e2 x6 |[Q:1/4=60] (e2 a2 c'2 z2 | b4) (d2 z2 | c2 e2 a2) z2 | (a2 g2) e2 z2 | (e2 a2 c'2 z2 | %6
 b4) (ge z2 | a2 c2 TB2 z2 | A4) x2 z2 |"^p" a2 x2 :: (a2 e2 c2) z2 | (!>!c2 d2) f2 z2 | %12
 (b2 f2 ^d2) z2 | (^d2 e2) e2 z2 | (e2 b2 d'2 z2 | c'4) (bg z2 | a2 c2 TB2 z2 | A4) x2 z2 | x4 :| %19
V:2
 x8 |[K:A][M:3/4] z2 x4 | (3A,CE (3A,CE (3A,CE z2 | (3G,B,E (3G,B,E (3G,B,E z2 | %4
 (3A,CE (3A,CE (3A,CE z2 | (3E,B,E (3E,B,E (3E,B,E z2 | (3A,CE (3A,CE (3A,CE z2 | %7
 (3G,B,E (3G,B,E (3G,B,E z2 | (A,2 E2 E,2 z2 | .A,2) .A,,2 :: z2 x4 z2 | (3=G,CE (3G,CE (3G,CE z2 | %12
 (3F,A,D (3F,A,D (3F,A,D z2 | (3A,^DF (3A,DF (3A,DF z2 | (3^G,B,E (3G,B,E (3G,B,E z2 | %15
 (3G,B,E (3G,B,E (3G,B,E z2 | (3A,CE (3A,CE (3A,CE z2 | (C2 E2 E,2 z2 | .A,2) .A,,2 :| %19

